X:5878
T:Scottish du Pére Rouxel
O:england
C:Trad 1, 33
E:11
M:2/4
L:1/16
K:G
GABA GABA|G2B2 d2B2|\
AGFG A2(3AAA|1 BcBA B2 GG/G/:|2 BcBA G4||
|:B2B2d2cB|A2A2d2 B2|\
AGFG A2(3AAA|1 BcBA B2 G2:|2 BcBA G4||


